X:20
T:Drowzy Lane
Z:Jack Campin, http://www.campin.me.uk/
F:Jack Campin's Nine-Note Tunebook
% last edit 03-02-2013
S:Blaikie MS (NLS MS.1578) p20
N:Blaikie #59
M:6/8
L:1/8
Q:3/8=90
K:DMin
G|A2c A2F|A2c A2F|(E<G)G A2c|d2G G2
F|A2c A2F|A2c A2F| GGG   A2G|F2D D2|]

